img/clock-mobile.svg

<svg width="58" height="57" viewBox="0 0 58 57" fill="none" xmlns="http://www.w3.org/2000/svg">
	<path d="M29.4074 8.76609V0.408485C29.4074 0.300148 29.3642 0.196248 29.2874 0.119643C29.2107 0.0430367 29.1065 0 28.998 0C28.8894 0 28.7852 0.0430367 28.7085 0.119643C28.6317 0.196248 28.5886 0.300148 28.5886 0.408485V8.76609H29.4074Z" fill="white" />
	<path d="M18.7383 11.6173C18.9717 11.4743 19.2091 11.3395 19.4466 11.2088L15.2543 3.97864C15.1977 3.88973 15.1088 3.8261 15.0062 3.80103C14.9037 3.77596 14.7954 3.79141 14.7039 3.84413C14.6125 3.89686 14.5451 3.98279 14.5156 4.08397C14.4862 4.18516 14.4971 4.29377 14.5461 4.38713L18.7383 11.6173Z" fill="white" />
	<path d="M4.29872 14.1867C4.245 14.28 4.23035 14.3907 4.25795 14.4947C4.28554 14.5987 4.35316 14.6877 4.44611 14.7422L11.6884 18.9374C11.8194 18.7004 11.9545 18.4635 12.0978 18.2307L4.8596 14.0355C4.81288 14.0085 4.76126 13.991 4.70772 13.984C4.65417 13.977 4.59977 13.9806 4.54764 13.9946C4.4955 14.0087 4.44667 14.0329 4.40395 14.0659C4.36123 14.0988 4.32547 14.1399 4.29872 14.1867Z" fill="white" />
	<path d="M43.5645 3.48029C43.518 3.45312 43.4666 3.43536 43.4132 3.42804C43.3599 3.42072 43.3056 3.42399 43.2534 3.43765C43.2013 3.45131 43.1524 3.4751 43.1096 3.50765C43.0667 3.54021 43.0307 3.58088 43.0036 3.62735L38.5821 11.2252C38.8195 11.36 39.057 11.4948 39.2903 11.6337L43.7119 4.03992C43.7391 3.99354 43.7569 3.94225 43.7642 3.889C43.7716 3.83574 43.7683 3.78157 43.7546 3.72958C43.7409 3.67759 43.7171 3.62881 43.6844 3.58603C43.6518 3.54325 43.6111 3.50732 43.5645 3.48029Z" fill="white" />
	<path d="M53.951 14.5707C53.9979 14.544 54.0391 14.5083 54.0721 14.4657C54.1051 14.423 54.1294 14.3743 54.1435 14.3223C54.1576 14.2703 54.1612 14.216 54.1542 14.1626C54.1471 14.1092 54.1296 14.0577 54.1025 14.011C54.0754 13.9646 54.0394 13.9239 53.9965 13.8913C53.9536 13.8588 53.9048 13.835 53.8526 13.8213C53.8005 13.8077 53.7462 13.8044 53.6929 13.8117C53.6395 13.819 53.5881 13.8368 53.5416 13.864L45.9226 18.2634C46.0618 18.4921 46.1969 18.729 46.332 18.97L53.951 14.5707Z" fill="white" />
	<path d="M9.21155 28.5C9.21155 28.3652 9.21155 28.2263 9.21155 28.0915H0.409402C0.300822 28.0915 0.196689 28.1346 0.119911 28.2112C0.0431333 28.2878 0 28.3917 0 28.5C0 28.6083 0.0431333 28.7122 0.119911 28.7888C0.196689 28.8654 0.300822 28.9085 0.409402 28.9085H9.22383C9.21974 28.7737 9.21155 28.6389 9.21155 28.5Z" fill="white" />
	<path d="M57.5906 28.0915H48.7762C48.7762 28.2263 48.7762 28.3652 48.7762 28.5C48.7762 28.6348 48.7762 28.7737 48.7762 28.9085H57.5906C57.6992 28.9085 57.8033 28.8654 57.8801 28.7888C57.9569 28.7122 58 28.6083 58 28.5C58 28.3917 57.9569 28.2878 57.8801 28.2112C57.8033 28.1346 57.6992 28.0915 57.5906 28.0915Z" fill="white" />
	<path d="M53.5498 42.2578L46.3116 38.0626C46.1806 38.2996 46.0455 38.5365 45.9022 38.7693L53.1404 42.9645C53.2028 42.9997 53.2734 43.0181 53.3451 43.0176C53.4344 43.0167 53.521 42.9866 53.5917 42.932C53.6623 42.8774 53.7131 42.8012 53.7363 42.7151C53.7595 42.629 53.7538 42.5377 53.7201 42.4552C53.6865 42.3726 53.6266 42.3033 53.5498 42.2578Z" fill="white" />
	<path d="M4.04489 42.4293C3.99832 42.4564 3.95756 42.4923 3.92493 42.5351C3.89231 42.5779 3.86846 42.6266 3.85477 42.6786C3.84108 42.7306 3.83781 42.7848 3.84514 42.838C3.85247 42.8913 3.87027 42.9426 3.89751 42.989C3.93358 43.0513 3.98552 43.103 4.04806 43.1389C4.11061 43.1748 4.18155 43.1935 4.25369 43.1932C4.32598 43.1939 4.39698 43.1741 4.45839 43.136L12.0774 38.7407C11.9341 38.5079 11.8031 38.271 11.668 38.03L4.04489 42.4293Z" fill="white" />
	<path d="M39.2617 45.3827C39.0283 45.5257 38.7909 45.6605 38.5493 45.7912L42.7416 53.0214C42.7777 53.0837 42.8296 53.1354 42.8921 53.1713C42.9547 53.2071 43.0256 53.2259 43.0978 53.2256C43.1701 53.2263 43.2411 53.2065 43.3025 53.1684C43.3954 53.1138 43.463 53.0249 43.4906 52.9209C43.5182 52.8169 43.5036 52.7062 43.4498 52.6129L39.2617 45.3827Z" fill="white" />
	<path d="M14.284 52.9601C14.257 53.0067 14.2394 53.0582 14.2324 53.1116C14.2253 53.1651 14.229 53.2193 14.2431 53.2714C14.2571 53.3234 14.2814 53.3721 14.3144 53.4147C14.3475 53.4573 14.3886 53.493 14.4355 53.5197C14.529 53.5733 14.64 53.5879 14.7442 53.5604C14.8485 53.5329 14.9376 53.4654 14.9923 53.3727L19.4179 45.7748C19.1764 45.64 18.9389 45.5093 18.7097 45.3663L14.284 52.9601Z" fill="white" />
	<path d="M28.5886 48.2339V56.5915C28.5886 56.6999 28.6317 56.8038 28.7085 56.8804C28.7852 56.957 28.8894 57 28.998 57C29.1065 57 29.2107 56.957 29.2874 56.8804C29.3642 56.8038 29.4074 56.6999 29.4074 56.5915V48.2339H28.5886Z" fill="white" />
	<path d="M42.8808 21.1963C42.9507 21.1561 43.0119 21.1025 43.0611 21.0386C43.1102 20.9748 43.1463 20.9019 43.1672 20.8241C43.1881 20.7464 43.1934 20.6653 43.1829 20.5854C43.1724 20.5056 43.1463 20.4286 43.1059 20.3589C43.0656 20.2892 43.0119 20.228 42.9479 20.179C42.8839 20.13 42.8109 20.094 42.7329 20.0731C42.655 20.0523 42.5737 20.0469 42.4937 20.0574C42.4137 20.0679 42.3366 20.094 42.2667 20.1342L30.6274 26.8538C30.4125 26.6389 30.1573 26.4684 29.8763 26.3521C29.5952 26.2357 29.294 26.1758 28.9898 26.1758C28.6855 26.1758 28.3843 26.2357 28.1033 26.3521C27.8223 26.4684 27.567 26.6389 27.3522 26.8538L19.0454 22.0214C18.9042 21.9391 18.7361 21.9161 18.5779 21.9574C18.4198 21.9988 18.2845 22.1012 18.202 22.242C18.1195 22.3828 18.0964 22.5506 18.1379 22.7084C18.1793 22.8662 18.2819 23.0012 18.4231 23.0835L26.7585 27.9118C26.6763 28.2292 26.6627 28.5604 26.7186 28.8834C26.7745 29.2065 26.8986 29.5139 27.0827 29.7855C27.2668 30.057 27.5066 30.2864 27.7863 30.4584C28.066 30.6304 28.3792 30.7411 28.705 30.7831C29.0308 30.8251 29.3619 30.7975 29.6763 30.7021C29.9906 30.6068 30.281 30.4458 30.5282 30.2299C30.7755 30.014 30.9739 29.7481 31.1102 29.4498C31.2466 29.1516 31.3179 28.8278 31.3193 28.5C31.3189 28.3027 31.2928 28.1064 31.2415 27.9159L42.8808 21.1963ZM28.998 29.6111C28.7818 29.6111 28.5704 29.5471 28.3907 29.4273C28.2109 29.3074 28.0708 29.1371 27.9881 28.9378C27.9053 28.7385 27.8837 28.5192 27.9259 28.3077C27.968 28.0961 28.0721 27.9017 28.225 27.7492C28.3779 27.5967 28.5727 27.4928 28.7847 27.4507C28.9967 27.4086 29.2165 27.4302 29.4163 27.5128C29.616 27.5953 29.7867 27.7351 29.9068 27.9145C30.0269 28.0938 30.0911 28.3047 30.0911 28.5204C30.0857 28.8061 29.9682 29.0783 29.7637 29.2785C29.5593 29.4786 29.2844 29.5907 28.998 29.5907V29.6111Z" fill="white" />
</svg>

<svg width="58" height="57" fill="none" xmlns="http://www.w3.org/2000/svg"><path d="M29.407 8.766V.408A.408.408 0 0028.71.12a.408.408 0 00-.12.288v8.358h.818zm-10.669 2.851c.234-.143.471-.278.709-.408l-4.193-7.23a.41.41 0 00-.708.408l4.192 7.23zm-14.439 2.57a.408.408 0 00.147.555l7.242 4.195c.131-.237.266-.474.41-.706L4.86 14.035a.41.41 0 00-.561.152zM43.565 3.48a.41.41 0 00-.561.147l-4.422 7.598c.237.135.475.27.708.409l4.422-7.594a.408.408 0 00-.148-.56zm10.386 11.09a.41.41 0 00.045-.679.41.41 0 00-.454-.027l-7.62 4.4c.14.228.275.465.41.706l7.619-4.4zM9.212 28.5v-.409H.409a.41.41 0 00-.29.698.41.41 0 00.29.12h8.815c-.004-.135-.012-.27-.012-.409zm48.378-.409h-8.814v.818h8.815A.41.41 0 0058 28.5a.408.408 0 00-.41-.409zm-4.04 14.167l-7.238-4.195a17.94 17.94 0 01-.41.706l7.238 4.196a.411.411 0 00.452-.033.409.409 0 00-.042-.674zm-49.505.172a.41.41 0 10.413.706l7.62-4.395c-.144-.233-.275-.47-.41-.711l-7.623 4.4zm35.217 2.953c-.234.143-.471.277-.713.408l4.193 7.23a.41.41 0 00.749-.1.407.407 0 00-.041-.308l-4.188-7.23zM14.284 52.96a.408.408 0 00.46.6.41.41 0 00.248-.187l4.426-7.598c-.242-.135-.48-.266-.708-.409l-4.426 7.594zm14.305-4.726v8.358a.408.408 0 00.698.288.408.408 0 00.12-.288v-8.358h-.818zM42.88 21.196a.614.614 0 10-.613-1.062l-11.64 6.72a2.313 2.313 0 00-2.524-.502 2.312 2.312 0 00-.75.502l-8.308-4.833a.618.618 0 00-.843.221.614.614 0 00.221.841l8.336 4.829a2.306 2.306 0 001.027 2.546 2.32 2.32 0 003.324-1.008c.137-.298.208-.622.21-.95a2.258 2.258 0 00-.079-.584l11.64-6.72zm-13.882 8.415a1.095 1.095 0 01-1.01-.673 1.088 1.088 0 01.797-1.487 1.095 1.095 0 011.306 1.07 1.09 1.09 0 01-1.093 1.07v.02z" fill="#fff"/></svg>
